X:1
T:Old Hag You've Killed Me  "CYMRU - * NB, ALL the 'TIES' in this tune a
M:6/8
L:1/8
Q:80
C:T. Tully
S:Jig - * Note
K:HP
|: a | \
{gcd}cB{G}A{g}fge | \
a{GdG}aged | \
e{g}e{A}e{g}fed |
e{g}e{A}e{gef}e2d | | \
{gcd}cB{G}A{g}fge | \
a{GdG}agec |
d{g}d{c}d{g}dge | \
d{g}d{c}d{g}d2 :: \
a |
{AGAG}AaA{a}gfe | \
{g}fed{g}ec{d}A | \
e{g}e{A}e{g}fed |
e{g}e{A}e{gef}e2a | | \
{AGAG}AaA{a}gfe | \
{g}fed{g}ec{d}A |
d{g}d{c}d{g}dge | \
d{g}d{c}d{g}d2 :: \
a |
c{GdGe}Ag{GdGe}A | \
a{GdG}aged | \
-e2A{g}fed |
e{g}e{A}e{gef}e2a | | \
c{GdGe}Ag{GdGe}A | \
a{GdG}agec |
d{g}d{c}d{g}dge | \
d{g}d{c}d{g}d2 :: \
a |
{AGAG}A2{d}Bc{gcecG}c | \
d{gdedc}d{g}ec{d}A | \
e{g}e{A}e{g}fed |
e{g}e{A}e{gef}e2a | | \
{AGAG}A2{d}Bc{gcecG}c | \
d{gdedc}d{g}ec{d}A |
d{g}d{c}d{g}dge|1
d{g}d{c}d{g}d2a:|2
d{g}d{c}d{gef}e3|] |:
| {gcd}cB{G}A{g}fge | \
{a}{g}{a}{g}{a}{g}a3ged | \
-e2A{g}fed |
e{g}e{A}e{gef}e2d | | \
{gcd}cB{G}A{g}fge | \
{a}{g}{a}{g}{a}{g}a3gec |
-d3{g}dge | \
d{g}d{c}d{g}d2a :: \
| {AGAG}AaAaga |
{AGAG}AaA{a}ged | \
-e2A{g}fed | \
e{g}e{A}e{gef}e2a| |
{AGAG}AaAaga | \
{AGAG}AaA{a}gec | \
-d3{g}dge|1
d{g}d{c}d{g}d2a:|2
d{g}d{c}d{gef}e3|]
